images/icons/viber.svg

<svg width="24" height="24" viewBox="0 0 24 24" fill="none" xmlns="http://www.w3.org/2000/svg">
<path fill-rule="evenodd" clip-rule="evenodd" d="M12.892 13.745C12.892 13.745 13.319 13.783 13.548 13.498L13.996 12.935C14.212 12.655 14.734 12.477 15.245 12.761C15.921 13.143 16.795 13.743 17.394 14.302C17.724 14.58 17.801 14.99 17.576 15.423L17.574 15.432C17.342 15.84 17.033 16.223 16.642 16.58L16.633 16.586C16.193 16.953 15.687 17.166 15.146 16.99L15.136 16.976C14.164 16.701 11.832 15.512 10.346 14.327C7.91501 12.409 6.18701 9.245 5.70901 7.549L5.69401 7.539C5.51801 6.996 5.73301 6.49 6.09801 6.051L6.10501 6.043C6.46201 5.652 6.84401 5.342 7.25301 5.111L7.26201 5.109C7.69401 4.884 8.10401 4.96 8.38301 5.291C8.75001 5.67 9.43901 6.582 9.92301 7.44C10.207 7.95 10.029 8.473 9.75001 8.688L9.18601 9.136C8.90201 9.366 8.93901 9.793 8.93901 9.793C8.93901 9.793 9.77301 12.949 12.892 13.745V13.745ZM17.799 11.129C17.632 11.129 17.496 10.994 17.495 10.827C17.481 8.997 16.931 7.539 15.861 6.495C14.789 5.45 13.434 4.914 11.834 4.903C11.666 4.902 11.531 4.765 11.533 4.597C11.534 4.43 11.669 4.296 11.836 4.296H11.838C13.6 4.308 15.096 4.902 16.285 6.06C17.475 7.222 18.087 8.825 18.102 10.823C18.103 10.99 17.969 11.127 17.801 11.129H17.799V11.129ZM16.204 10.505H16.197C16.029 10.501 15.896 10.362 15.9 10.195C15.924 9.157 15.627 8.317 14.994 7.626C14.364 6.937 13.499 6.561 12.349 6.477C12.182 6.464 12.056 6.319 12.068 6.152C12.081 5.985 12.226 5.859 12.393 5.871C13.687 5.966 14.713 6.419 15.442 7.216C16.175 8.016 16.534 9.023 16.507 10.208C16.503 10.373 16.368 10.505 16.204 10.505V10.505ZM14.646 9.983C14.485 9.983 14.351 9.857 14.343 9.694C14.292 8.664 13.806 8.16 12.816 8.106C12.648 8.097 12.52 7.954 12.529 7.787C12.538 7.619 12.68 7.491 12.848 7.5C14.156 7.57 14.882 8.319 14.949 9.664C14.958 9.831 14.829 9.974 14.661 9.982L14.646 9.983V9.983ZM21.463 13.452C20.858 18.329 17.291 18.637 16.633 18.848C16.353 18.938 13.751 19.585 10.481 19.372C10.481 19.372 8.04301 22.312 7.28201 23.077C7.16301 23.196 7.02401 23.244 6.93001 23.222C6.79901 23.19 6.76301 23.034 6.76501 22.808L6.78501 18.792V18.791C2.02301 17.468 2.30001 12.496 2.35401 9.893C2.40801 7.29 2.89701 5.157 4.35001 3.723C6.96001 1.359 12.337 1.712 12.337 1.712C16.878 1.732 19.054 3.099 19.559 3.557C21.234 4.991 22.087 8.424 21.463 13.452V13.452ZM20.811 2.339C20.214 1.791 17.804 0.0409988 12.436 0.0169988C12.436 0.0169988 6.10601 -0.365001 3.02001 2.467C1.30201 4.185 0.698007 6.698 0.634007 9.815C0.571007 12.933 0.488007 18.773 6.11801 20.357L6.12401 20.359L6.12001 22.775C6.12001 22.775 6.08501 23.754 6.72901 23.954C7.50801 24.195 7.96501 23.452 8.71001 22.65C9.11801 22.21 9.68101 21.564 10.107 21.07C13.958 21.392 16.919 20.653 17.256 20.544C18.033 20.291 22.433 19.728 23.149 13.887C23.887 7.865 22.791 4.057 20.811 2.339V2.339Z" fill="white"/>
</svg>

<svg width="24" height="24" xmlns="http://www.w3.org/2000/svg" fill-rule="evenodd" clip-rule="evenodd"><path d="M12.892 13.745s.427.038.656-.247l.448-.563c.216-.28.738-.458 1.249-.174.676.382 1.55.982 2.149 1.541.33.278.407.688.182 1.121l-.002.009c-.232.408-.541.791-.932 1.148l-.009.006c-.44.367-.946.58-1.487.404l-.01-.014c-.972-.275-3.304-1.464-4.79-2.649-2.431-1.918-4.159-5.082-4.637-6.778l-.015-.01c-.176-.543.039-1.049.404-1.488l.007-.008c.357-.391.739-.701 1.148-.932l.009-.002c.432-.225.842-.149 1.121.182.367.379 1.056 1.291 1.54 2.149.284.51.106 1.033-.173 1.248l-.564.448c-.284.23-.247.657-.247.657s.834 3.156 3.953 3.952zm4.907-2.616c-.167 0-.303-.135-.304-.302-.014-1.83-.564-3.288-1.634-4.332-1.072-1.045-2.427-1.581-4.027-1.592-.168-.001-.303-.138-.301-.306.001-.167.136-.301.303-.301h.002c1.762.012 3.258.606 4.447 1.764 1.19 1.162 1.802 2.765 1.817 4.763.001.167-.133.304-.301.306h-.002zm-1.595-.624h-.007c-.168-.004-.301-.143-.297-.31.024-1.038-.273-1.878-.906-2.569-.63-.689-1.495-1.065-2.645-1.149-.167-.013-.293-.158-.281-.325.013-.167.158-.293.325-.281 1.294.095 2.32.548 3.049 1.345.733.8 1.092 1.807 1.065 2.992-.004.165-.139.297-.303.297zm-1.558-.522c-.161 0-.295-.126-.303-.289-.051-1.03-.537-1.534-1.527-1.588-.168-.009-.296-.152-.287-.319.009-.168.151-.296.319-.287 1.308.07 2.034.819 2.101 2.164.009.167-.12.31-.288.318l-.015.001zm6.817 3.469c-.605 4.877-4.172 5.185-4.83 5.396-.28.09-2.882.737-6.152.524 0 0-2.438 2.94-3.199 3.705-.119.119-.258.167-.352.145-.131-.032-.167-.188-.165-.414l.02-4.016v-.001c-4.762-1.323-4.485-6.295-4.431-8.898.054-2.603.543-4.736 1.996-6.17 2.61-2.364 7.987-2.011 7.987-2.011 4.541.02 6.717 1.387 7.222 1.845 1.675 1.434 2.528 4.867 1.904 9.895zm-.652-11.113c-.597-.548-3.007-2.298-8.375-2.322 0 0-6.33-.382-9.416 2.45-1.718 1.718-2.322 4.231-2.386 7.348-.063 3.118-.146 8.958 5.484 10.542l.006.002-.004 2.416s-.035.979.609 1.179c.779.241 1.236-.502 1.981-1.304.408-.44.971-1.086 1.397-1.58 3.851.322 6.812-.417 7.149-.526.777-.253 5.177-.816 5.893-6.657.738-6.022-.358-9.83-2.338-11.548z"/></svg>
